X: 14014
T: Frank's
R: reel
M: 4/4
K: Dmajor
dfed B2 dB|ABde fdef|g3 b afda|bd'af (3efg fe|
dfed B2dB|ABde fdef|g3 b afdf|edce d2 (3ABc|
dfed B2dB|ABde fdef|g2gb afda|bd'af (3efg fe|
dfed ABdB|ABde fdef|gb (3bbb afdf|edce dabc'||
d'dd c'dd bd|abba fdef|g3 b afdf|efga ba (3abc'|
d'dd c'dd bd|abba fdef|gb (3bbb afdf|edce dabc'|
d'dd c'dd bd|abba fdef|g3 b adfa|bd'af (3efg fe|
dfed B3 d|ABde fdef|g3 b afdf|edce d4||

